X: 1586
T: Angus Young's
R: strathspey
M: 4/4
K: Amixolydian
|:c>A (3AAA c<A A>B|c>A (3ABc d>B G>B|
c>A (3AAA a2 e>c|B>A B<c d>B G>B:|
|:c<e e>f e<c a2|c<e e>c d>B G2|
c<e e>f e<c a2|(3efg d>g B<G G>B:|

